X: 3065
Q:"Strathspey."
M: C
L: 1/8
K: Em
uB |\
vG<uE vE>uF G>A B<e | d<B A<B G>A B<e |\
|: B |\
e>fg>e d>eB>e | d>Bg>e d>eB>g |\
d>eg>e d>eB>e | d<B B>G A2A :|


